X: 952
T: Tableau Clog
C:Bill Boyd, 1938
B: jims roots
M:4/4
L:1/8
Q: 1/4=100
K:G
V:1 
|:(3def | "G"agdB AGBd | "Am"fecA E2_E2 | "D7"DFAg fede | "G"Bc^cd edef |
agdB AGBd | "Am"fecA E2_E2 | "D7"DFAg fdAB | "G"G2B2 G2 :|
|:[K:D]B_B | "A7"AgB^B cbag | "D"fadf BAfd |"A7" ceAc GAcB | "D"AB (3cde fdAF |
"A7"AgB^B cbag | "D"fadf BAfd | "A7"cBge (3dcB (3ABc | "D"d2f2 d2 :|
% abcbook-tune_id 6298c297a91a4b904dd9cde5


% abcbook-boost 0
% abcbook-tablature 
% abcbook-transpose 
% abcbook-lastupdated 1654178455826
% abcbook-soundfonts 
% abcbook-repeats 1


